X:1
T:Carillon, 87.87 D
T:Carillon, 87.87 D
T:Charles John Vincent, Jr., ca. 1902
T:Public Domain Courtesy of the Cyber Hymnal™
C:Charles John Vincent, Jr., ca. 1902
Z:Public Domain
Z:Courtesy of the Cyber Hymnal™
%%score ( 1 2 ) ( 3 4 ) ( 5 6 ) ( 7 8 )
L:1/8
Q:1/4=105
M:4/4
K:D
V:1 treble 
V:2 treble 
V:3 bass 
V:4 bass 
V:5 treble 
V:6 treble 
V:7 bass 
V:8 bass 
V:1
 D2 d2 c2 B2 | A2 (GF) G2 E2 | D2 E2 F2 D2 | E2 B2 A4 | D2 d2 c2 B2 | A2 (GF) G2 E2 | D2 F2 G2 B2 | %7
 A2 [Gc]2 [Fd]4 x2 || [DF]3 [DF] [DF]2 [DF]2 | [CG]2 [CG]2 [CE]2 [CE]2 | [DA]2 [DA]2 D2 D2 | %11
 [DB]2 [DE]2 [CE]4 | [DF]3 [DF] [DF]2 [DF]2 | [CG]2 [CG]2 [CE]2 [CE]2 | [DA]2 D2 D2 [DG]2 | %15
 [DF]2 [CE]2 D4 |] %16
V:2
 x8 | x8 | x8 | x8 | x8 | x8 | x8 | A2 x8 || x8 | x8 | x4 D2 D2 | x8 | x8 | x8 | x2 D2 D2 x2 | %15
 x4 D4 |] %16
V:3
 z8 | z8 | z8 | z8 | z8 | z8 | z8 | A,2 [A,E]2 [D,D]4 x2 || [D,A,]3 [D,A,] [D,A,]2 [D,A,]2 | %9
 [E,A,]2 [E,A,]2 [G,A,]2 [G,A,]2 | [F,A,]2 [F,A,]2 [F,A,]2 [F,A,]2 | [E,A,]2 [E,^G,]2 A,4 | %12
 A,2 z [D,C]2 [D,B,]2 x | [E,A,]2 [E,A,]2 [G,A,]2 [G,A,]2 | [F,A,]2 [A,=C]2 [G,C]2 [G,B,]2 | %15
 A,2 [A,,G,]2 [D,F,]4 |] %16
V:4
 x8 | x8 | x8 | x8 | x8 | x8 | x8 | A,2 x8 || x8 | x8 | x8 | x4 A,4 | D,3 (D2 D,) x2 | x8 | x8 | %15
 A,2 x6 |] %16
V:5
 D4 D4 | (D4 C4) | D8 | [B,D]4 (D2 C2) | D2 d2 c2 B2 | [EA]2 (GF) [DG]2 [CE]2 | D2 F2 G2 d2 | %7
 A4 [Ec]2 [DAd]4 || .d2 .d'2 .c'2 .b2 | .a2 (.g.f) .g2 .e2 | .d2 .e2 .f2 .d2 | .e2 .b2 (.a.f.g.e) | %12
 .d2 .d'2 .c'2 .b2 | .a2 (.g.f) .g2 .e2 | .d2 .f2 .g2 .b2 | .a2 .c'2 .d'4 |] %16
V:6
 x8 | x8 | x8 | x4 A,4 | D4 F4 | x2 D2 x4 | D4 D4 | [DA]2 x8 || x8 | x8 | x8 | x8 | x8 | x8 | x8 | %15
 x8 |] %16
V:7
 [F,A,]4 [=F,^G,B,]4 | [D,,E,=G,A,]8 | [F,A,]4 B,2 A,2 | (A,2 ^G,2 [A,,E,=G,]4) | F,4 D,2 D2 | %5
 C2 (B,A,) B,2 G,2 | [D,F,]2 [=C,A,]2 G,4 | F,2 G,2 [D,F,]4 x2 || .D,2 .D2 .C2 .B,2 | %9
 .A,2 (.G,.F,) .G,2 .E,2 | .D,2 .E,2 .F,2 .D,2 | .E,2 .B,2 (.A,.F,.G,.E,) | .D,2 .D2 .C2 .B,2 | %13
 .A,2 (.G,.F,) .G,2 .E,2 | .D,2 .F,2 .G,2 .B,2 | .A,2 .C2 .D4 |] %16
V:8
 D,,8- | x8 | (D,2 C,2 [B,,F,]4) | [E,,E,]4 x4 | D,8 | D,8 | x4 B,,2 G,,2 | A,,4 x6 || x8 | x8 | %10
 x8 | x8 | x8 | x8 | x8 | x8 |] %16

